AppData/Local/CapCut/User Data/Cache/effect/20797838/c286704b1a7e9423a19ba8365771476b/AmazingFeature/texture/filter.cube
#Created by: Adobe Photoshop Export Color Lookup Plugin
TITLE "覆盆子"
#LUT size
LUT_3D_SIZE 8
#data domain
#LUT data points
DOMAIN_MIN 0.000000 0.000000 0.000000
DOMAIN_MAX 0.903226 0.903226 0.903226
0.000000 0.000000 0.000000
0.122162 0.000885 0.001129
0.262238 0.001343 0.001923
0.419098 0.001892 0.004089
0.588348 0.002441 0.006348
0.740570 0.002899 0.009399
0.863464 0.003143 0.012177
0.951782 0.003326 0.014618
0.002625 0.082123 0.001770
0.124451 0.083191 0.003357
0.265564 0.082733 0.004669
0.423615 0.082245 0.007477
0.595886 0.079987 0.012787
0.751831 0.077484 0.018158
0.879303 0.073700 0.024902
0.972046 0.069916 0.030640
0.006012 0.226532 0.004272
0.127411 0.227936 0.006134
0.266937 0.228790 0.007721
0.424194 0.228912 0.009521
0.594238 0.228760 0.012787
0.747833 0.228180 0.016327
0.871735 0.227600 0.020142
0.961273 0.226654 0.023651
0.013641 0.386200 0.008270
0.131012 0.389709 0.010559
0.269531 0.391144 0.012939
0.426178 0.391968 0.015015
0.595367 0.392059 0.018097
0.748138 0.391968 0.021454
0.871613 0.391785 0.024536
0.960358 0.391693 0.027161
0.027344 0.555603 0.013000
0.136566 0.562561 0.019104
0.272491 0.565186 0.022125
0.428131 0.566589 0.024506
0.597260 0.567322 0.027039
0.749481 0.567505 0.030060
0.872589 0.567535 0.032959
0.961060 0.567444 0.036194
0.041992 0.706238 0.019745
0.143066 0.716888 0.028931
0.275726 0.721100 0.032654
0.430298 0.722931 0.035614
0.598724 0.724060 0.039063
0.750824 0.724579 0.042542
0.873566 0.724731 0.045685
0.961884 0.724762 0.048309
0.054535 0.827118 0.027191
0.148315 0.840973 0.039063
0.278595 0.846252 0.044647
0.432007 0.848694 0.047791
0.599945 0.850037 0.051361
0.751678 0.850922 0.054565
0.874451 0.851257 0.057373
0.962708 0.851471 0.059662
0.062805 0.914459 0.032501
0.152924 0.929749 0.046844
0.280792 0.936035 0.053284
0.433624 0.938934 0.056702
0.601013 0.940552 0.060089
0.752533 0.941559 0.063202
0.875122 0.942108 0.066071
0.963379 0.942322 0.068207
0.000153 0.000153 0.124237
0.122070 0.001099 0.125397
0.262177 0.001556 0.126251
0.419373 0.002106 0.127441
0.588715 0.002777 0.128845
0.741150 0.003357 0.130554
0.864166 0.003784 0.132019
0.952606 0.004089 0.133362
0.002258 0.082306 0.126678
0.124725 0.082062 0.128326
0.282318 0.060669 0.110352
0.459656 0.040009 0.095947
0.654053 0.019196 0.085785
0.817322 0.007690 0.066467
0.948853 0.003448 0.051758
1.000000 0.027588 0.117828
0.005585 0.227081 0.128021
0.104736 0.246552 0.106445
0.285156 0.246277 0.108002
0.459381 0.225098 0.091156
0.648834 0.203918 0.074799
0.820526 0.184387 0.063568
0.959991 0.168091 0.056427
0.997559 0.193146 0.094818
0.012512 0.387421 0.129059
0.090912 0.425476 0.089630
0.266998 0.427948 0.092468
0.462219 0.428589 0.094727
0.650330 0.407349 0.079559
0.820221 0.388550 0.067383
0.957672 0.373352 0.058777
0.995941 0.378510 0.095612
0.025330 0.557526 0.128326
0.084686 0.615631 0.076233
0.251678 0.621307 0.081879
0.444305 0.623352 0.084808
0.652924 0.624268 0.087891
0.822083 0.605591 0.076385
0.958771 0.590515 0.068481
0.997070 0.573608 0.101746
0.040100 0.708893 0.127625
0.084015 0.784210 0.067444
0.239319 0.794373 0.076691
0.429108 0.797363 0.080780
0.636780 0.798981 0.084076
0.824158 0.799744 0.087402
0.960449 0.784485 0.080048
0.998718 0.747955 0.109741
0.052643 0.830994 0.127655
0.086334 0.918457 0.062378
0.230682 0.932831 0.076172
0.417511 0.937073 0.081085
0.623962 0.939148 0.084686
0.810638 0.940338 0.088135
0.961914 0.940857 0.091248
1.000000 0.888275 0.117950
0.061798 0.918701 0.128113
0.118225 0.971375 0.099213
0.256226 0.981110 0.108856
0.424377 0.985016 0.113129
0.609100 0.987122 0.116058
0.776337 0.988312 0.118744
0.911743 0.988983 0.121002
1.000000 0.987976 0.133209
0.000244 0.000244 0.266205
0.120178 0.001801 0.268127
0.261719 0.001862 0.268372
0.419067 0.002441 0.269196
0.588684 0.003052 0.270203
0.741180 0.003662 0.271301
0.864349 0.004120 0.272430
0.952911 0.004456 0.273132
0.001740 0.082642 0.268188
0.102051 0.060059 0.287445
0.281616 0.059692 0.288818
0.459839 0.040100 0.272919
0.654694 0.019257 0.260590
0.817871 0.008301 0.237671
0.949799 0.004303 0.219696
1.000000 0.028656 0.269409
0.003479 0.228302 0.270599
0.101013 0.246277 0.290222
0.268066 0.225708 0.275116
0.444153 0.203857 0.251587
0.633636 0.178894 0.230591
0.805359 0.158295 0.215912
0.945282 0.141907 0.206512
0.998718 0.169403 0.232971
0.009796 0.389160 0.271393
0.089508 0.426697 0.269897
0.241028 0.414185 0.246552
0.448273 0.413239 0.246643
0.635590 0.388367 0.230133
0.805450 0.367798 0.211456
0.942932 0.351898 0.198608
0.996735 0.360992 0.225677
0.022369 0.559784 0.269623
0.083038 0.617645 0.249268
0.222382 0.607666 0.225250
0.425781 0.609558 0.227386
0.639282 0.609833 0.229218
0.807953 0.589111 0.215790
0.944641 0.573456 0.202484
0.998199 0.563965 0.228760
0.037811 0.711182 0.266541
0.082214 0.787354 0.230377
0.210999 0.780640 0.209808
0.409821 0.783783 0.213379
0.621490 0.785400 0.215881
0.810974 0.786011 0.217957
0.947205 0.769867 0.207092
1.000000 0.743958 0.233917
0.051514 0.833130 0.264374
0.084625 0.922760 0.214813
0.204407 0.919617 0.199127
0.398926 0.924042 0.203827
0.608673 0.926239 0.206848
0.797241 0.927551 0.209167
0.949493 0.928009 0.211151
1.000000 0.887512 0.244019
0.061310 0.920868 0.262939
0.116913 0.974060 0.243652
0.231232 0.983093 0.226349
0.409149 0.987244 0.230591
0.600677 0.989471 0.233307
0.772949 0.990692 0.235504
0.911957 0.991486 0.237305
1.000000 0.988342 0.266510
0.000305 0.000305 0.425446
0.117188 0.002991 0.428619
0.260345 0.002502 0.428162
0.418488 0.002808 0.428650
0.588287 0.003387 0.429413
0.741028 0.003937 0.430298
0.864227 0.004395 0.431091
0.952850 0.004761 0.431885
0.002075 0.082550 0.427612
0.077515 0.043976 0.467041
0.260712 0.041687 0.466705
0.459412 0.040100 0.470428
0.654327 0.019684 0.456665
0.817780 0.008667 0.433105
0.949799 0.004700 0.414398
1.000000 0.029266 0.441864
0.003754 0.228180 0.429871
0.077148 0.227234 0.468445
0.237427 0.198639 0.453217
0.443726 0.198669 0.454620
0.633484 0.178253 0.432465
0.805481 0.158386 0.416840
0.945465 0.142151 0.406311
0.998779 0.169678 0.415833
0.005524 0.391571 0.432556
0.084473 0.428680 0.469727
0.237946 0.412720 0.456116
0.427246 0.390228 0.438019
0.617737 0.367279 0.412994
0.787842 0.343079 0.391571
0.925140 0.324646 0.376068
0.996918 0.332977 0.385376
0.016113 0.563324 0.431366
0.077728 0.620575 0.448029
0.221283 0.608734 0.432190
0.397644 0.593201 0.406769
0.622772 0.592133 0.406769
0.790527 0.569092 0.394165
0.927094 0.550995 0.376678
0.998352 0.546021 0.385254
0.031738 0.714569 0.427277
0.078094 0.790070 0.426666
0.209991 0.781921 0.413391
0.377930 0.767303 0.384705
0.599945 0.769012 0.386475
0.794403 0.768829 0.387848
0.929779 0.750580 0.378693
1.000000 0.734589 0.389801
0.047180 0.835938 0.423553
0.082336 0.925140 0.408447
0.203156 0.921204 0.399170
0.365356 0.907166 0.370087
0.584625 0.909241 0.372314
0.778046 0.910492 0.374420
0.932434 0.910522 0.375702
1.000000 0.883881 0.395172
0.057770 0.923340 0.421356
0.114716 0.976196 0.418182
0.229919 0.984619 0.409393
0.375763 0.988190 0.379639
0.581085 0.990417 0.382019
0.762787 0.991730 0.384064
0.908386 0.992554 0.385681
1.000000 0.988770 0.420105
0.000397 0.000397 0.597229
0.111298 0.005188 0.602966
0.258026 0.003479 0.600983
0.417114 0.003418 0.600952
0.587646 0.003784 0.601563
0.740540 0.004272 0.602295
0.863861 0.004761 0.603058
0.952576 0.005066 0.603607
0.002747 0.082092 0.600067
0.040680 0.031769 0.665497
0.237427 0.025330 0.659302
0.437653 0.023132 0.662079
0.653992 0.019867 0.669250
0.817230 0.009094 0.644775
0.949432 0.005096 0.625885
1.000000 0.029877 0.628174
0.003876 0.228241 0.601593
0.043213 0.214691 0.666229
0.211304 0.178040 0.644684
0.417297 0.177246 0.645233
0.632782 0.176605 0.647675
0.805115 0.158173 0.630951
0.945282 0.142273 0.619720
0.998627 0.169739 0.610809
0.005707 0.391541 0.604156
0.053314 0.413208 0.665863
0.211487 0.387970 0.647125
0.392273 0.358093 0.630707
0.617432 0.358337 0.632294
0.787689 0.340393 0.609711
0.924927 0.323639 0.594330
0.996704 0.332336 0.590881
0.007660 0.567810 0.607147
0.067902 0.625214 0.664154
0.217712 0.609283 0.649261
0.394318 0.591431 0.633698
0.598816 0.567963 0.613342
0.770325 0.548584 0.591827
0.907379 0.529297 0.574341
0.997955 0.515472 0.561890
0.021973 0.719971 0.603760
0.069458 0.794525 0.641907
0.206757 0.783875 0.629791
0.376526 0.768402 0.610321
0.573456 0.750122 0.586395
0.775085 0.749115 0.586365
0.910065 0.731049 0.578247
1.000000 0.718018 0.565704
0.037598 0.840729 0.599091
0.074615 0.929260 0.622498
0.200012 0.923218 0.614227
0.364227 0.908295 0.593292
0.554932 0.890594 0.566376
0.755463 0.891785 0.567810
0.913361 0.891174 0.568481
1.000000 0.877258 0.569305
0.049774 0.927582 0.595825
0.109833 0.979095 0.608917
0.227539 0.986328 0.605743
0.374786 0.989288 0.589142
0.543640 0.990906 0.553925
0.742371 0.992249 0.555389
0.900360 0.993073 0.556976
1.000000 0.989288 0.592529
0.000519 0.000519 0.751923
0.103546 0.008057 0.760895
0.254852 0.004700 0.756927
0.415497 0.004120 0.756317
0.586548 0.004364 0.756683
0.739838 0.004700 0.757202
0.863281 0.005096 0.757813
0.952087 0.005402 0.758362
0.003082 0.082062 0.755035
0.015625 0.020905 0.842133
0.215088 0.011536 0.834076
0.416779 0.009033 0.834381
0.627686 0.009125 0.834595
0.816345 0.009491 0.835358
0.948792 0.005524 0.816193
1.000000 0.030396 0.796265
0.004059 0.228241 0.756287
0.016968 0.202637 0.843811
0.187653 0.162018 0.818756
0.396362 0.159882 0.817902
0.611725 0.158936 0.819824
0.804321 0.157837 0.822968
0.944885 0.142334 0.811310
0.998413 0.169739 0.785919
0.005829 0.391571 0.758667
0.019165 0.404022 0.846680
0.187775 0.371155 0.820618
0.366943 0.336456 0.802216
0.590698 0.336212 0.803284
0.786469 0.336182 0.804962
0.924530 0.321930 0.788727
0.996246 0.331238 0.773590
0.007782 0.567902 0.761536
0.031891 0.615753 0.844788
0.194305 0.590576 0.822357
0.368469 0.565948 0.804871
0.567047 0.538208 0.786804
0.770020 0.538513 0.788208
0.907135 0.524567 0.768799
0.997528 0.512451 0.756470
0.009491 0.726440 0.764343
0.054108 0.801697 0.838989
0.201813 0.785675 0.823456
0.373352 0.768005 0.807159
0.569916 0.748169 0.789368
0.753418 0.728180 0.770935
0.891693 0.713104 0.754456
0.989899 0.700378 0.742615
0.023956 0.847809 0.760101
0.061157 0.935791 0.818390
0.195435 0.925690 0.807800
0.362061 0.909607 0.790192
0.553833 0.891479 0.769714
0.735168 0.874146 0.751434
0.895203 0.873413 0.751709
0.992340 0.861389 0.746185
0.037689 0.933411 0.755524
0.102142 0.982941 0.782501
0.224121 0.988281 0.782318
0.372803 0.990509 0.774017
0.542480 0.991852 0.755707
0.721375 0.974945 0.736664
0.881531 0.975708 0.738098
0.994354 0.975037 0.738312
0.000610 0.000610 0.876770
0.093628 0.011536 0.889771
0.251862 0.005920 0.883118
0.413605 0.004913 0.881958
0.585541 0.004852 0.881958
0.739075 0.005127 0.882416
0.862732 0.005432 0.882874
0.951569 0.005707 0.883392
0.003143 0.082062 0.879822
0.010101 0.010101 0.974823
0.191223 0.008392 0.972687
0.394806 0.005585 0.969360
0.606873 0.005219 0.969055
0.795776 0.005554 0.969604
0.948029 0.005920 0.970184
1.000000 0.030762 0.932312
0.004242 0.228363 0.881226
0.013611 0.183655 0.978882
0.165588 0.150726 0.960724
0.379242 0.146729 0.957825
0.595703 0.145172 0.959473
0.788605 0.143738 0.962677
0.944366 0.142273 0.966125
0.997986 0.169647 0.927063
0.006012 0.391602 0.883575
0.015533 0.385010 0.981384
0.167419 0.359589 0.962036
0.347748 0.321411 0.941101
0.572052 0.320557 0.941589
0.767242 0.320313 0.943115
0.923340 0.320007 0.944855
0.995911 0.329834 0.920746
0.007935 0.567993 0.886261
0.017853 0.602173 0.984650
0.174072 0.578003 0.963440
0.349304 0.549347 0.943390
0.544647 0.518036 0.924377
0.746307 0.518158 0.925507
0.905640 0.518250 0.926788
0.997040 0.508484 0.913910
0.009583 0.726501 0.888916
0.020172 0.797119 0.987854
0.182129 0.772034 0.964172
0.354248 0.749908 0.945465
0.547302 0.725616 0.926758
0.729156 0.705200 0.910156
0.890778 0.705566 0.911346
0.989471 0.695526 0.897583
0.011078 0.854492 0.891205
0.043274 0.944183 0.980164
0.189911 0.928009 0.964294
0.359039 0.909790 0.947052
0.550995 0.890076 0.928772
0.732208 0.872345 0.912201
0.878296 0.857544 0.897858
0.977631 0.846863 0.886658
0.022888 0.941040 0.887512
0.093536 0.987061 0.923828
0.220306 0.990204 0.924896
0.370758 0.991638 0.922394
0.541077 0.992615 0.915924
0.720367 0.975586 0.898834
0.867310 0.961517 0.886078
0.979645 0.961121 0.886505
0.000671 0.000671 0.966522
0.083313 0.015198 0.983765
0.248810 0.007080 0.974213
0.412354 0.005493 0.972321
0.584625 0.005249 0.972137
0.738434 0.005432 0.972443
0.862305 0.005707 0.972870
0.951141 0.005951 0.973267
0.003632 0.081757 0.970093
0.027893 0.060608 1.000000
0.221863 0.039978 1.000000
0.405457 0.036560 1.000000
0.596985 0.035309 1.000000
0.766510 0.035675 1.000000
0.899139 0.037872 1.000000
0.985626 0.039917 1.000000
0.004425 0.228241 0.971130
0.030365 0.223450 1.000000
0.193573 0.178009 1.000000
0.387482 0.174805 1.000000
0.583984 0.174347 1.000000
0.757324 0.175079 1.000000
0.895172 0.176300 1.000000
0.985443 0.177734 1.000000
0.006073 0.391815 0.973297
0.037231 0.401703 1.000000
0.196472 0.368591 1.000000
0.355835 0.331482 1.000000
0.565704 0.331390 1.000000
0.747284 0.332520 1.000000
0.891052 0.334137 1.000000
0.985413 0.335724 1.000000
0.008026 0.568085 0.975952
0.055115 0.587860 1.000000
0.205261 0.567230 1.000000
0.359589 0.544952 1.000000
0.531311 0.506714 1.000000
0.729492 0.508484 1.000000
0.884308 0.510925 1.000000
0.985535 0.513275 1.000000
0.009674 0.726624 0.978607
0.077087 0.752258 1.000000
0.216492 0.742798 1.000000
0.369141 0.731537 1.000000
0.538208 0.711517 1.000000
0.713409 0.691406 1.000000
0.869690 0.694366 1.000000
0.978485 0.697754 1.000000
0.011200 0.854675 0.980804
0.095093 0.885010 1.000000
0.229095 0.882263 1.000000
0.381226 0.878357 1.000000
0.550934 0.871246 1.000000
0.723145 0.854980 1.000000
0.862579 0.842529 0.997192
0.976135 0.842834 0.998047
0.012238 0.946564 0.982422
0.107483 0.980927 1.000000
0.241180 0.980927 1.000000
0.395172 0.980865 1.000000
0.568695 0.980804 1.000000
0.740021 0.966217 1.000000
0.865082 0.960175 0.998718
0.968292 0.950562 0.989136
