AppData/Local/CapCut/User Data/Cache/effect/20797838/c286704b1a7e9423a19ba8365771476b/AmazingFeature/texture/filter.cube
#Created by: Adobe Photoshop Export Color Lookup Plugin
TITLE "覆盆子"
#LUT size
LUT_3D_SIZE 5
#data domain
#LUT data points
DOMAIN_MIN 0.000000 0.000000 0.000000
DOMAIN_MAX 0.903226 0.903226 0.903226
0.000000 0.000000 0.000000
0.225525 0.001221 0.002014
0.503937 0.002197 0.004944
0.774292 0.002899 0.010315
0.951782 0.003326 0.014618
0.004974 0.188843 0.003906
0.229645 0.190826 0.006165
0.509094 0.190674 0.010315
0.782043 0.189392 0.017303
0.962189 0.187622 0.023499
0.019562 0.471588 0.010498
0.234497 0.478149 0.016907
0.511871 0.479919 0.020752
0.782593 0.480164 0.026245
0.960724 0.479797 0.030426
0.044769 0.739685 0.021790
0.241211 0.754608 0.035217
0.515045 0.758118 0.040680
0.784668 0.759369 0.046600
0.962097 0.759491 0.051392
0.062805 0.914459 0.032501
0.246246 0.934967 0.052032
0.517059 0.939880 0.058441
0.786072 0.941742 0.063934
0.963379 0.942322 0.068207
0.000183 0.000183 0.229065
0.225128 0.001740 0.231079
0.504150 0.002655 0.232544
0.775055 0.003723 0.234741
0.952820 0.004364 0.236389
0.003082 0.190155 0.232971
0.230713 0.187866 0.236786
0.542847 0.147797 0.199005
0.849640 0.111389 0.176178
1.000000 0.131714 0.200134
0.016907 0.474213 0.233215
0.191467 0.514252 0.193634
0.547729 0.515991 0.196960
0.848083 0.480286 0.170532
0.997192 0.467590 0.191925
0.042328 0.744080 0.229095
0.173340 0.821045 0.168091
0.517883 0.827087 0.174957
0.852692 0.828857 0.179199
1.000000 0.784668 0.201508
0.061615 0.920410 0.226898
0.199554 0.981201 0.191925
0.509247 0.988129 0.199188
0.812225 0.990540 0.203308
1.000000 0.988251 0.231293
0.000366 0.000366 0.511566
0.222046 0.003021 0.514801
0.503235 0.003296 0.515320
0.774658 0.004211 0.516754
0.952698 0.004883 0.517670
0.003296 0.190186 0.515228
0.182617 0.147003 0.552338
0.542053 0.145813 0.554993
0.849518 0.111938 0.528137
1.000000 0.132233 0.519531
0.006592 0.479919 0.520050
0.186707 0.515686 0.556549
0.513214 0.479279 0.525940
0.816742 0.440735 0.486908
0.997253 0.423676 0.472778
0.031250 0.750366 0.514404
0.169861 0.824127 0.522064
0.469696 0.797577 0.479187
0.822937 0.798126 0.481140
1.000000 0.770264 0.479340
0.054413 0.925140 0.508118
0.196747 0.984100 0.510803
0.458649 0.989777 0.465881
0.795715 0.992310 0.468994
1.000000 0.989075 0.505646
0.000549 0.000549 0.786163
0.215881 0.005432 0.791992
0.501068 0.004333 0.790802
0.773560 0.004944 0.791748
0.951965 0.005493 0.792664
0.003754 0.190186 0.790070
0.137085 0.120575 0.862976
0.505859 0.114990 0.861481
0.848816 0.111938 0.868439
1.000000 0.132202 0.827820
0.006866 0.480072 0.794312
0.143951 0.485107 0.865448
0.460083 0.430725 0.832306
0.815582 0.430817 0.834717
0.996643 0.420197 0.807800
0.009888 0.761597 0.799194
0.159515 0.828949 0.866150
0.465515 0.797241 0.836639
0.787750 0.763672 0.805756
0.986481 0.740906 0.782349
0.033386 0.935516 0.791687
0.189972 0.987823 0.821899
0.456177 0.991547 0.808716
0.761475 0.971313 0.777802
0.990356 0.971191 0.779114
0.000671 0.000671 0.966522
0.209381 0.007935 0.975189
0.498749 0.005249 0.972107
0.772369 0.005493 0.972565
0.951141 0.005951 0.973267
0.004059 0.190063 0.970642
0.153107 0.144196 1.000000
0.490692 0.138275 1.000000
0.797089 0.138977 1.000000
0.985413 0.141602 1.000000
0.007080 0.479950 0.974609
0.163361 0.474548 1.000000
0.443024 0.418030 1.000000
0.780701 0.420135 1.000000
0.985413 0.423553 1.000000
0.010101 0.761719 0.979187
0.184265 0.783020 1.000000
0.455902 0.765259 1.000000
0.754150 0.732635 1.000000
0.978394 0.737091 1.000000
0.012238 0.946564 0.982422
0.205933 0.980927 1.000000
0.481171 0.980865 1.000000
0.772949 0.965179 1.000000
0.968292 0.950562 0.989136
