AppData/Local/CapCut/User Data/Cache/effect/20797838/c286704b1a7e9423a19ba8365771476b/AmazingFeature/texture/filter.cube
#Created by: Adobe Photoshop Export Color Lookup Plugin
TITLE "覆盆子"
#LUT size
LUT_3D_SIZE 32
#data domain
DOMAIN_MIN 0.0 0.0 0.0
DOMAIN_MAX 1.0 1.0 1.0
#LUT data points
0.000000 0.000000 0.000000
0.029083 0.000183 0.000183
0.058899 0.000458 0.000671
0.089600 0.000824 0.001007
0.122162 0.000885 0.001129
0.155487 0.001007 0.001373
0.190063 0.001099 0.001556
0.225525 0.001221 0.002014
0.262238 0.001343 0.001923
0.299896 0.001434 0.002441
0.338715 0.001587 0.002625
0.378357 0.001770 0.003143
0.419098 0.001892 0.004089
0.461090 0.002075 0.004059
0.503937 0.002197 0.004944
0.546570 0.002319 0.005798
0.588348 0.002441 0.006348
0.628662 0.002594 0.007050
0.667664 0.002686 0.007843
0.704987 0.002777 0.008453
0.740570 0.002899 0.009399
0.774292 0.002899 0.010315
0.806122 0.003052 0.010651
0.835846 0.003082 0.011597
0.863464 0.003143 0.012177
0.888855 0.003174 0.013245
0.912140 0.003296 0.013519
0.933075 0.003235 0.014557
0.951782 0.003326 0.014618
0.968079 0.003326 0.015167
0.982086 0.003357 0.015869
0.985962 0.003326 0.016113
0.000000 0.000000 0.000000
0.029083 0.000183 0.000183
0.058899 0.000458 0.000671
0.089600 0.000824 0.001007
0.122162 0.000885 0.001129
0.155487 0.001007 0.001373
0.190063 0.001099 0.001556
0.225525 0.001221 0.002014
0.262238 0.001343 0.001923
0.299896 0.001434 0.002441
0.338715 0.001587 0.002625
0.378357 0.001770 0.003143
0.419098 0.001892 0.004089
0.461090 0.002075 0.004059
0.503937 0.002197 0.004944
0.546570 0.002319 0.005798
0.588348 0.002441 0.006348
0.628662 0.002594 0.007050
0.667664 0.002686 0.007843
0.704987 0.002777 0.008453
0.740570 0.002899 0.009399
0.774292 0.002899 0.010315
0.806122 0.003052 0.010651
0.835846 0.003082 0.011597
0.863464 0.003143 0.012177
0.888855 0.003174 0.013245
0.912140 0.003296 0.013519
0.933075 0.003235 0.014557
0.951782 0.003326 0.014618
0.968079 0.003326 0.015167
0.982086 0.003357 0.015869
0.985962 0.003326 0.016113
0.000580 0.016663 0.000671
0.029633 0.016846 0.000977
0.058746 0.017487 0.001190
0.090820 0.017151 0.001740
0.122864 0.017395 0.001923
0.157043 0.016998 0.002563
0.191406 0.017120 0.002655
0.227478 0.016724 0.003479
0.263855 0.016968 0.003296
0.302704 0.015991 0.004669
0.341949 0.015717 0.005310
0.382202 0.015350 0.006287
0.424072 0.014496 0.007965
0.467163 0.013702 0.008881
0.510895 0.012939 0.010315
0.554626 0.012329 0.011566
0.598145 0.011078 0.014526
0.638916 0.011017 0.015747
0.677795 0.011078 0.016479
0.715118 0.011200 0.017548
0.750702 0.011230 0.018066
0.784393 0.011353 0.018890
0.816254 0.011505 0.019257
0.845917 0.011536 0.020264
0.873535 0.011627 0.020874
0.898956 0.011627 0.021881
0.922241 0.011749 0.022156
0.943146 0.011719 0.023224
0.961914 0.011841 0.023193
0.978088 0.011749 0.023834
0.992188 0.011810 0.024536
0.996033 0.011810 0.024658
0.001892 0.048615 0.001709
0.030060 0.049225 0.002045
0.060974 0.048950 0.002533
0.091370 0.049500 0.002747
0.124054 0.049438 0.002960
0.158142 0.049042 0.003540
0.193024 0.048828 0.003601
0.228210 0.049133 0.003937
0.265350 0.048645 0.004639
0.302826 0.048767 0.004974
0.342743 0.047882 0.006470
0.382996 0.047668 0.007050
0.424500 0.047241 0.008148
0.467041 0.046814 0.009003
0.511322 0.045654 0.010925
0.555511 0.044525 0.012604
0.598145 0.043732 0.014191
0.640106 0.042450 0.015839
0.680603 0.041077 0.018158
0.719147 0.039948 0.019806
0.756470 0.038330 0.022034
0.791626 0.037048 0.023590
0.825012 0.035522 0.025726
0.856110 0.034485 0.027374
0.885071 0.033203 0.029236
0.912079 0.031891 0.030975
0.936890 0.030731 0.033417
0.958649 0.030243 0.035400
0.978394 0.029663 0.036682
0.996094 0.029114 0.039001
1.000000 0.032501 0.044373
1.000000 0.033905 0.046844
0.002625 0.082123 0.001770
0.031555 0.082336 0.002228
0.060730 0.083038 0.002594
0.092499 0.082916 0.003143
0.124451 0.083191 0.003357
0.158356 0.082977 0.003784
0.192657 0.083099 0.003845
0.228302 0.083160 0.004089
0.265564 0.082733 0.004669
0.303131 0.082794 0.005280
0.342041 0.082672 0.006073
0.382721 0.082214 0.006897
0.423615 0.082245 0.007477
0.466187 0.081696 0.008759
0.509857 0.081207 0.009674
0.553284 0.080719 0.011078
0.595886 0.079987 0.012787
0.637299 0.079315 0.014008
0.677063 0.078735 0.015625
0.715332 0.078125 0.016632
0.751831 0.077484 0.018158
0.786865 0.076355 0.020020
0.819824 0.075317 0.021790
0.850922 0.074249 0.023499
0.879303 0.073700 0.024902
0.906281 0.072449 0.026367
0.930420 0.071564 0.028168
0.952057 0.071320 0.028717
0.972046 0.069916 0.030640
0.989471 0.068970 0.032166
1.000000 0.070374 0.033936
1.000000 0.071930 0.035706
0.002960 0.116821 0.002655
0.032166 0.116974 0.002777
0.061188 0.117676 0.003571
0.092957 0.117615 0.003723
0.125336 0.117706 0.004181
0.158691 0.117767 0.004303
0.193329 0.117767 0.004578
0.228455 0.117950 0.004883
0.265320 0.117828 0.005341
0.303162 0.117859 0.005585
0.342285 0.117798 0.006012
0.382233 0.117737 0.006744
0.423584 0.117462 0.007721
0.465729 0.117371 0.008270
0.509155 0.117035 0.009399
0.552338 0.116730 0.010559
0.594757 0.116394 0.011688
0.635651 0.116180 0.012817
0.675140 0.115692 0.013947
0.713501 0.115143 0.015381
0.749664 0.114563 0.016693
0.784271 0.113892 0.018219
0.816742 0.113586 0.019104
0.847076 0.113129 0.020508
0.875549 0.112396 0.021729
0.901520 0.111938 0.023010
0.925446 0.111572 0.023804
0.947113 0.110931 0.024933
0.966583 0.110046 0.026581
0.983093 0.110138 0.026764
0.997955 0.109497 0.028107
1.000000 0.110107 0.028961
0.003204 0.152710 0.003235
0.033020 0.152588 0.003418
0.062561 0.152954 0.004059
0.093903 0.153107 0.004486
0.125854 0.153503 0.004852
0.158997 0.153839 0.004730
0.193573 0.153870 0.004944
0.229523 0.153687 0.005463
0.265778 0.153870 0.005676
0.303711 0.153778 0.006317
0.342499 0.153839 0.007019
0.382599 0.153748 0.007507
0.423584 0.153748 0.008057
0.465820 0.153564 0.009094
0.509033 0.153473 0.009674
0.552246 0.153259 0.010498
0.594299 0.153107 0.011780
0.635345 0.152771 0.012665
0.674377 0.152588 0.013733
0.712555 0.152069 0.015076
0.748322 0.151947 0.016083
0.782715 0.151611 0.016907
0.815033 0.151215 0.018463
0.845490 0.150787 0.019318
0.873535 0.150391 0.020538
0.899658 0.149811 0.021667
0.923279 0.149658 0.022614
0.944580 0.149445 0.023346
0.963776 0.148834 0.024323
0.980347 0.148834 0.024933
0.994873 0.148438 0.025604
0.998718 0.148529 0.025635
0.004974 0.188843 0.003906
0.034149 0.189026 0.003998
0.063019 0.189789 0.004456
0.094513 0.189911 0.004700
0.126251 0.190338 0.005463
0.159912 0.190399 0.005859
0.194214 0.190674 0.006073
0.229645 0.190826 0.006165
0.266418 0.190826 0.006226
0.304077 0.190918 0.006805
0.342773 0.190979 0.007294
0.382751 0.190887 0.008118
0.423676 0.190857 0.008728
0.465942 0.190826 0.009338
0.509094 0.190674 0.010315
0.551971 0.190704 0.011261
0.594208 0.190491 0.012177
0.634857 0.190369 0.013184
0.674103 0.190155 0.014099
0.711975 0.189789 0.015198
0.748047 0.189545 0.016022
0.782043 0.189392 0.017303
0.814178 0.189270 0.017944
0.844330 0.188873 0.019287
0.872559 0.188354 0.020386
0.898254 0.188416 0.020966
0.921997 0.187897 0.022156
0.943146 0.187775 0.022797
0.962189 0.187622 0.023499
0.978821 0.187469 0.024200
0.993073 0.187286 0.024597
0.996948 0.187317 0.024750
0.006012 0.226532 0.004272
0.035706 0.226410 0.004364
0.064178 0.227386 0.005371
0.095764 0.227448 0.005737
0.127411 0.227936 0.006134
0.160156 0.228546 0.006470
0.194855 0.228577 0.006866
0.230499 0.228668 0.007477
0.266937 0.228790 0.007721
0.304657 0.228943 0.007599
0.343506 0.228973 0.008270
0.383209 0.229004 0.008911
0.424194 0.228912 0.009521
0.466370 0.228882 0.010071
0.509399 0.228943 0.011017
0.552216 0.228821 0.011993
0.594238 0.228760 0.012787
0.634979 0.228668 0.013824
0.674072 0.228638 0.014526
0.711884 0.228455 0.015503
0.747833 0.228180 0.016327
0.781708 0.228058 0.017548
0.813965 0.227753 0.018402
0.843872 0.227661 0.019440
0.871735 0.227600 0.020142
0.897583 0.227264 0.021027
0.921051 0.227081 0.021851
0.942383 0.226959 0.022583
0.961273 0.226654 0.023651
0.977814 0.226532 0.023987
0.992188 0.226318 0.024506
0.996063 0.226501 0.024902
0.007599 0.264923 0.005066
0.036865 0.265106 0.005157
0.065704 0.265839 0.006042
0.096130 0.266449 0.006561
0.127838 0.267029 0.007050
0.161285 0.267212 0.007446
0.195435 0.267517 0.007690
0.231049 0.267670 0.008331
0.267487 0.267914 0.008789
0.305176 0.268036 0.008911
0.343903 0.268036 0.009247
0.383789 0.268036 0.009918
0.424469 0.268188 0.010742
0.466705 0.268158 0.011047
0.509705 0.268219 0.011963
0.552490 0.268127 0.012909
0.594360 0.268188 0.013611
0.635101 0.268036 0.014587
0.674255 0.268005 0.015442
0.711823 0.267822 0.016235
0.747742 0.267670 0.017059
0.781616 0.267609 0.018280
0.813660 0.267456 0.018951
0.843719 0.267242 0.020233
0.871582 0.267151 0.020874
0.897247 0.266907 0.021881
0.920654 0.266907 0.022278
0.941895 0.266754 0.023346
0.960724 0.266602 0.023895
0.977264 0.266541 0.024200
0.991455 0.266418 0.024933
0.995422 0.266357 0.024811
0.008881 0.304626 0.006104
0.038177 0.304779 0.006195
0.066833 0.305664 0.006805
0.097198 0.306244 0.007843
0.128754 0.306824 0.008331
0.161743 0.307251 0.008881
0.195923 0.307587 0.009125
0.231781 0.307709 0.009003
0.267975 0.308075 0.009674
0.305939 0.308105 0.009979
0.344482 0.308197 0.010620
0.384247 0.308228 0.011414
0.425110 0.308319 0.011688
0.467102 0.308350 0.012543
0.510040 0.308380 0.013458
0.552917 0.308472 0.013977
0.594757 0.308380 0.015045
0.635345 0.308411 0.015503
0.674316 0.308380 0.016602
0.711945 0.308228 0.017548
0.747681 0.308228 0.018188
0.781708 0.308197 0.019104
0.813751 0.307922 0.020203
0.843719 0.307892 0.020905
0.871429 0.307800 0.021820
0.897125 0.307617 0.022888
0.920563 0.307556 0.023346
0.941711 0.307526 0.023895
0.960541 0.307190 0.024658
0.977020 0.307281 0.025177
0.991180 0.307037 0.025543
0.995087 0.307159 0.026031
0.011688 0.344818 0.006683
0.040527 0.345093 0.006958
0.068512 0.346283 0.008209
0.098114 0.347290 0.008881
0.130096 0.347656 0.009399
0.162689 0.348236 0.009827
0.197052 0.348450 0.010345
0.232056 0.348877 0.010956
0.268829 0.349030 0.011475
0.306244 0.349335 0.011688
0.345245 0.349457 0.012054
0.384735 0.349609 0.012665
0.425537 0.349762 0.013214
0.467438 0.349762 0.014099
0.510376 0.349854 0.014648
0.553253 0.349823 0.015594
0.595093 0.349823 0.016266
0.635437 0.349762 0.017181
0.674683 0.349854 0.017914
0.712128 0.349823 0.018677
0.747955 0.349701 0.019409
0.781860 0.349579 0.020660
0.813690 0.349640 0.021118
0.843689 0.349243 0.022400
0.871490 0.349396 0.022858
0.897064 0.349365 0.023804
0.920502 0.349060 0.024719
0.941620 0.349152 0.024872
0.960388 0.348969 0.025482
0.976868 0.349060 0.025970
0.990967 0.348907 0.026703
0.994873 0.348999 0.026794
0.013641 0.386200 0.008270
0.043182 0.386169 0.008331
0.070801 0.387665 0.009399
0.099518 0.389160 0.009979
0.131012 0.389709 0.010559
0.163971 0.390137 0.011200
0.197906 0.390442 0.012024
0.233093 0.390869 0.012390
0.269531 0.391144 0.012939
0.307007 0.391388 0.013428
0.345642 0.391541 0.014160
0.385437 0.391815 0.014374
0.426178 0.391968 0.015015
0.468018 0.391968 0.015900
0.511047 0.392029 0.016205
0.553772 0.391968 0.017517
0.595367 0.392059 0.018097
0.635864 0.392151 0.018890
0.674957 0.392181 0.019623
0.712494 0.392212 0.020325
0.748138 0.391968 0.021454
0.782043 0.391998 0.021942
0.813995 0.391876 0.023224
0.843872 0.391968 0.023468
0.871613 0.391785 0.024536
0.897186 0.391937 0.025269
0.920532 0.391724 0.025787
0.941650 0.391754 0.026306
0.960358 0.391693 0.027161
0.976868 0.391510 0.027557
0.990997 0.391541 0.027802
0.994965 0.391541 0.028320
0.016998 0.428345 0.008820
0.045532 0.428741 0.009186
0.072357 0.430481 0.010864
0.101105 0.431824 0.011871
0.132233 0.432648 0.012787
0.164795 0.433228 0.013367
0.198975 0.433533 0.013794
0.233917 0.433990 0.014587
0.270081 0.434357 0.015106
0.307495 0.434631 0.015625
0.346100 0.434937 0.015961
0.385895 0.435150 0.016357
0.426697 0.435242 0.017334
0.468506 0.435394 0.017731
0.511505 0.435364 0.018463
0.554108 0.435608 0.019165
0.595856 0.435547 0.020233
0.636322 0.435669 0.020630
0.675354 0.435638 0.021729
0.712708 0.435638 0.022491
0.748505 0.435516 0.023529
0.782288 0.435638 0.023926
0.814148 0.435669 0.024750
0.844055 0.435455 0.025574
0.871796 0.435425 0.026428
0.897339 0.435303 0.027161
0.920685 0.435242 0.027863
0.941742 0.435394 0.028198
0.960480 0.435333 0.028778
0.976898 0.435089 0.029388
0.991058 0.435333 0.029449
0.994995 0.435181 0.029755
0.019562 0.471588 0.010498
0.048279 0.472015 0.010803
0.074402 0.473969 0.012848
0.103027 0.475464 0.014038
0.133484 0.476471 0.014954
0.166046 0.477112 0.015686
0.199829 0.477631 0.016235
0.234497 0.478149 0.016907
0.271027 0.478455 0.017120
0.308350 0.478821 0.017761
0.346985 0.479095 0.018097
0.386536 0.479340 0.018738
0.427246 0.479584 0.019379
0.469086 0.479828 0.019867
0.511871 0.479919 0.020752
0.554596 0.479950 0.021637
0.596375 0.480042 0.022247
0.636658 0.480072 0.023102
0.675781 0.480164 0.023743
0.713165 0.480103 0.024567
0.748840 0.480072 0.025208
0.782593 0.480164 0.026245
0.814575 0.480103 0.026794
0.844208 0.479919 0.027893
0.872040 0.479950 0.028198
0.897552 0.479980 0.029236
0.920837 0.480011 0.029480
0.941925 0.479950 0.030365
0.960724 0.479797 0.030426
0.977020 0.479919 0.031067
0.991150 0.479797 0.031586
0.995148 0.479797 0.032043
0.023407 0.514191 0.011688
0.050873 0.515198 0.012512
0.076874 0.517181 0.014496
0.104553 0.519043 0.015991
0.135162 0.520020 0.016907
0.167145 0.520905 0.017792
0.200989 0.521393 0.018372
0.235565 0.522034 0.019135
0.271698 0.522369 0.019684
0.308838 0.522827 0.020294
0.347626 0.523102 0.020386
0.387085 0.523407 0.021027
0.427795 0.523560 0.022003
0.469635 0.523865 0.022461
0.512451 0.524048 0.023071
0.555176 0.524109 0.023956
0.596802 0.524323 0.024445
0.637177 0.524170 0.025452
0.676147 0.524384 0.026031
0.713531 0.524384 0.026886
0.749207 0.524292 0.027557
0.782959 0.524384 0.028534
0.814819 0.524353 0.029327
0.844635 0.524414 0.029877
0.872345 0.524323 0.030548
0.897827 0.524353 0.031342
0.921173 0.524384 0.031677
0.942200 0.524139 0.032471
0.960846 0.524109 0.033325
0.977234 0.524323 0.033600
0.991364 0.524048 0.033905
0.995300 0.524200 0.034302
0.027344 0.555603 0.013000
0.053711 0.557068 0.014160
0.079102 0.559326 0.016388
0.106628 0.561310 0.017944
0.136566 0.562561 0.019104
0.168488 0.563477 0.019958
0.201874 0.564178 0.020660
0.236481 0.564789 0.021545
0.272491 0.565186 0.022125
0.309662 0.565613 0.022858
0.348175 0.565948 0.023224
0.387634 0.566345 0.023468
0.428131 0.566589 0.024506
0.469971 0.566833 0.025299
0.512970 0.567078 0.025574
0.555634 0.567200 0.026489
0.597260 0.567322 0.027039
0.637604 0.567383 0.027863
0.676575 0.567352 0.028748
0.713867 0.567444 0.029266
0.749481 0.567505 0.030060
0.783295 0.567444 0.031036
0.815125 0.567413 0.031616
0.844940 0.567474 0.032471
0.872589 0.567535 0.032959
0.898041 0.567444 0.033875
0.921387 0.567566 0.034241
0.942444 0.567383 0.035034
0.961060 0.567444 0.036194
0.977478 0.567474 0.036041
0.991516 0.567291 0.036865
0.995483 0.567474 0.036865
0.030884 0.595734 0.014618
0.057068 0.597321 0.015961
0.081268 0.600128 0.018585
0.108490 0.602173 0.020294
0.138336 0.603546 0.021515
0.169678 0.604767 0.022552
0.202850 0.605499 0.023315
0.237549 0.606079 0.024200
0.273407 0.606567 0.024872
0.310577 0.607056 0.025238
0.348938 0.607422 0.025635
0.388214 0.607819 0.026337
0.428802 0.608032 0.027344
0.470703 0.608368 0.027435
0.513306 0.608643 0.028442
0.555908 0.608826 0.029205
0.597626 0.609009 0.029694
0.638000 0.609070 0.030518
0.676941 0.609100 0.031250
0.714203 0.609161 0.032318
0.749878 0.609131 0.033051
0.783600 0.609253 0.033722
0.815338 0.609283 0.034546
0.845184 0.609253 0.035309
0.872803 0.609192 0.036163
0.898254 0.609222 0.036957
0.921600 0.609222 0.037415
0.942596 0.609039 0.038147
0.961243 0.609161 0.038635
0.977600 0.609222 0.039368
0.991730 0.609253 0.039734
0.995605 0.609131 0.040039
0.034912 0.634003 0.016235
0.059692 0.636353 0.018158
0.083313 0.639374 0.020966
0.110352 0.641541 0.022736
0.139648 0.643127 0.024200
0.171021 0.644287 0.025208
0.204132 0.645203 0.025726
0.238281 0.646027 0.026642
0.274200 0.646484 0.027435
0.311432 0.647003 0.027832
0.349518 0.647400 0.028625
0.388794 0.647827 0.029175
0.429321 0.648224 0.029449
0.471130 0.648407 0.030304
0.513794 0.648651 0.031250
0.556519 0.648865 0.031830
0.597992 0.649017 0.032867
0.638458 0.649261 0.033295
0.677338 0.649261 0.034424
0.714691 0.649414 0.034821
0.750214 0.649445 0.036041
0.783936 0.649506 0.036682
0.815613 0.649323 0.037811
0.845459 0.649506 0.038239
0.873077 0.649414 0.039429
0.898560 0.649384 0.039764
0.921753 0.649445 0.040771
0.942810 0.649292 0.041595
0.961517 0.649414 0.041901
0.977875 0.649323 0.042267
0.991882 0.649323 0.043243
0.995819 0.649323 0.042816
0.038361 0.671112 0.017822
0.062958 0.673553 0.019684
0.085938 0.676880 0.022766
0.112122 0.679352 0.024872
0.141296 0.681030 0.026398
0.172485 0.682251 0.027588
0.204895 0.683350 0.028473
0.239288 0.684052 0.029327
0.274902 0.684784 0.030029
0.311859 0.685242 0.030853
0.350037 0.685730 0.031219
0.389557 0.686096 0.031738
0.429993 0.686371 0.032806
0.471527 0.686676 0.033722
0.514282 0.687012 0.033966
0.556915 0.687225 0.034912
0.598389 0.687500 0.035583
0.638763 0.687683 0.036560
0.677704 0.687805 0.037415
0.714966 0.687836 0.038513
0.750458 0.687958 0.039185
0.784210 0.687866 0.040070
0.815948 0.687958 0.040619
0.845642 0.687988 0.041870
0.873322 0.687927 0.042389
0.898773 0.687866 0.043518
0.921967 0.688080 0.043884
0.943054 0.687927 0.044434
0.961639 0.688080 0.045380
0.978027 0.687866 0.045624
0.992065 0.688019 0.045990
0.996002 0.687927 0.046051
0.041992 0.706238 0.019745
0.064941 0.709229 0.022461
0.088196 0.712524 0.025116
0.113922 0.715210 0.027435
0.143066 0.716888 0.028931
0.173584 0.718414 0.030151
0.205963 0.719543 0.031158
0.240234 0.720367 0.031860
0.275726 0.721100 0.032654
0.312531 0.721680 0.033508
0.350586 0.722107 0.034363
0.389801 0.722565 0.035248
0.430298 0.722931 0.035614
0.471924 0.723236 0.036652
0.514587 0.723602 0.037384
0.557129 0.723846 0.037964
0.598724 0.724060 0.039063
0.638947 0.724243 0.039886
0.678040 0.724365 0.040741
0.715271 0.724548 0.041565
0.750824 0.724579 0.042542
0.784515 0.724731 0.043274
0.816162 0.724579 0.044373
0.845978 0.724670 0.044769
0.873566 0.724731 0.045685
0.899017 0.724579 0.046509
0.922211 0.724854 0.047119
0.943207 0.724792 0.047760
0.961884 0.724762 0.048309
0.978210 0.724670 0.049042
0.992310 0.724670 0.048981
0.996216 0.724762 0.049103
0.044769 0.739685 0.021790
0.068146 0.742615 0.024231
0.090271 0.746277 0.027557
0.115997 0.748993 0.029755
0.144165 0.751099 0.031586
0.174866 0.752502 0.032959
0.207001 0.753845 0.034119
0.241211 0.754608 0.035217
0.276367 0.755463 0.036194
0.313263 0.756073 0.036743
0.351379 0.756622 0.037292
0.390564 0.757050 0.038208
0.430756 0.757477 0.039063
0.472412 0.757843 0.039581
0.515045 0.758118 0.040680
0.557617 0.758362 0.041656
0.598999 0.758636 0.042297
0.639374 0.758850 0.043182
0.678223 0.759033 0.044037
0.715454 0.759186 0.044891
0.751129 0.759277 0.045746
0.784668 0.759369 0.046600
0.816467 0.759338 0.047363
0.846100 0.759369 0.047913
0.873810 0.759491 0.048676
0.899231 0.759491 0.049713
0.922516 0.759460 0.050232
0.943451 0.759552 0.050842
0.962097 0.759491 0.051392
0.978394 0.759552 0.051788
0.992493 0.759460 0.052277
0.996307 0.759460 0.052460
0.048218 0.770874 0.023743
0.070313 0.774323 0.026581
0.092651 0.777985 0.029419
0.117340 0.781097 0.032013
0.145752 0.783051 0.033875
0.176056 0.784760 0.035431
0.208374 0.786011 0.036774
0.241913 0.787109 0.037964
0.277252 0.787750 0.039001
0.313721 0.788513 0.040009
0.351715 0.789032 0.040955
0.390900 0.789612 0.041412
0.431305 0.789948 0.042236
0.472809 0.790344 0.043091
0.515381 0.790741 0.043488
0.557922 0.791016 0.044556
0.599182 0.791229 0.045624
0.639618 0.791473 0.046448
0.678284 0.791626 0.047211
0.715607 0.791840 0.047943
0.751221 0.791931 0.048950
0.784912 0.792053 0.049561
0.816681 0.792114 0.050690
0.846497 0.792114 0.051025
0.873932 0.792236 0.051910
0.899445 0.792114 0.052490
0.922607 0.792267 0.053314
0.943665 0.792206 0.053772
0.962311 0.792297 0.054352
0.978607 0.792236 0.054657
0.992676 0.792206 0.054749
0.996552 0.792267 0.055084
0.051697 0.799988 0.025360
0.073273 0.803741 0.028412
0.094452 0.807678 0.031860
0.118927 0.811005 0.034668
0.146820 0.813171 0.036774
0.177155 0.814850 0.038483
0.209137 0.816132 0.039764
0.242615 0.817322 0.041138
0.278076 0.818115 0.041687
0.314484 0.818848 0.042755
0.352478 0.819458 0.043335
0.391327 0.820007 0.044342
0.431641 0.820465 0.045166
0.473114 0.820892 0.045776
0.515533 0.821198 0.046875
0.558228 0.821533 0.047485
0.599579 0.821777 0.048492
0.639801 0.822052 0.049347
0.678711 0.822205 0.050171
0.716034 0.822388 0.050873
0.751465 0.822540 0.051788
0.785065 0.822601 0.052643
0.816925 0.822784 0.053162
0.846710 0.822784 0.054077
0.874268 0.822876 0.054504
0.899658 0.822693 0.055359
0.922882 0.822845 0.055634
0.943817 0.822968 0.056458
0.962585 0.822998 0.056702
0.978821 0.822968 0.057281
0.992859 0.822784 0.057953
0.996765 0.822998 0.057953
0.054535 0.827118 0.027191
0.075226 0.831268 0.030060
0.096191 0.835419 0.033875
0.121063 0.838501 0.036743
0.148315 0.840973 0.039063
0.178406 0.842743 0.040863
0.210205 0.844116 0.042114
0.243439 0.845306 0.043518
0.278595 0.846252 0.044647
0.315094 0.846954 0.045746
0.352905 0.847626 0.046356
0.391846 0.848206 0.046936
0.432007 0.848694 0.047791
0.473480 0.849091 0.048706
0.515930 0.849487 0.049469
0.558411 0.849792 0.050415
0.599945 0.850037 0.051361
0.640076 0.850372 0.051849
0.678894 0.850525 0.052917
0.716156 0.850769 0.053375
0.751678 0.850922 0.054565
0.785370 0.851074 0.055023
0.817200 0.851166 0.055847
0.846954 0.851288 0.056488
0.874451 0.851257 0.057373
0.899902 0.851410 0.057800
0.923065 0.851257 0.058441
0.943970 0.851379 0.058990
0.962708 0.851471 0.059662
0.979004 0.851440 0.059998
0.993103 0.851440 0.060272
0.996948 0.851501 0.060547
0.056671 0.852386 0.028748
0.077759 0.856201 0.031708
0.097839 0.860840 0.035919
0.122589 0.863983 0.038971
0.149628 0.866516 0.041321
0.179443 0.868408 0.043182
0.210785 0.869995 0.044678
0.244446 0.871094 0.046112
0.279144 0.872131 0.047272
0.315674 0.872925 0.047943
0.353363 0.873627 0.048889
0.392456 0.874176 0.049591
0.432587 0.874664 0.050659
0.473816 0.875183 0.050995
0.516388 0.875519 0.052002
0.558746 0.875854 0.052917
0.600250 0.876190 0.053680
0.640411 0.876404 0.054443
0.679077 0.876648 0.055237
0.716278 0.876801 0.056305
0.751831 0.876984 0.056885
0.785645 0.877136 0.057709
0.817291 0.877289 0.058136
0.846924 0.877411 0.059052
0.874786 0.877472 0.059662
0.900055 0.877533 0.060425
0.923248 0.877655 0.060913
0.944214 0.877655 0.061432
0.962921 0.877563 0.062164
0.979218 0.877716 0.062347
0.993286 0.877625 0.062744
0.997101 0.877533 0.062775
0.059204 0.875183 0.029999
0.079468 0.879364 0.033508
0.099823 0.883759 0.037720
0.123749 0.887238 0.040985
0.150909 0.889801 0.043365
0.180267 0.891907 0.045441
0.211823 0.893433 0.046967
0.244843 0.894745 0.048370
0.279816 0.895752 0.049164
0.316162 0.896545 0.050385
0.353943 0.897247 0.050934
0.392609 0.897919 0.051910
0.432770 0.898468 0.052734
0.474121 0.898895 0.053436
0.516602 0.899261 0.054413
0.559082 0.899597 0.055450
0.600433 0.899963 0.056061
0.640564 0.900269 0.056915
0.679352 0.900482 0.057678
0.716644 0.900696 0.058350
0.752197 0.900848 0.059296
0.785736 0.900970 0.060059
0.817566 0.901154 0.060547
0.847137 0.901215 0.061523
0.874725 0.901337 0.062073
0.900360 0.901398 0.062897
0.923462 0.901489 0.063171
0.944366 0.901550 0.063782
0.963074 0.901489 0.064117
0.979401 0.901581 0.064514
0.993378 0.901611 0.064911
0.997314 0.901489 0.065094
0.060852 0.896118 0.031372
0.081573 0.900085 0.034851
0.101654 0.904633 0.039307
0.124939 0.908386 0.042694
0.151917 0.911072 0.045288
0.181061 0.913116 0.047363
0.212402 0.914795 0.048828
0.245483 0.916016 0.050415
0.280457 0.917084 0.051483
0.316711 0.917999 0.052307
0.354431 0.918732 0.053009
0.393219 0.919312 0.054047
0.433289 0.919861 0.054810
0.474640 0.920349 0.055481
0.516876 0.920807 0.056549
0.559143 0.921173 0.057526
0.600555 0.921539 0.058228
0.640625 0.921753 0.059113
